X:7
T:Jingle Bells
C:Pierpont/Monday (melody)
M:4/4
K:D
L: 1/4
Q:1/4=200
V: 1 name="Vln I" snm="" clef=treble
!mf! vF F F2 | F F F2 | F A D>E| F2 z2 | vG G G G | G F F F |
 F E E F | E2 A2 | !mf! vF F F2 | F F F2 | F A D>E| F2 z2 | vG G G G |
 G F F F | A A G E | D2 z2 |\
K:G
z4 | z4 |
!f! vD B A G | D3 D/D/ | D B A G | E4 | vE c B A | F4 |
d d c A | B4 | vD B A G | D4 | D B A G | E4 |
vE c B A | d d d d | !4!e d c A | .G z Ld2 |
!mf! vB B B2 | B B B2 | B d G>A | B4 | uc c c c | c B B B/B/ | B A A B | A2 d2 |
!mf! vB B B2 | B B B2 | B d G>A | B4 | uc c c c | c B B B/B/ | d d c A | G2 "^pizz." z2 |
B2 B B | B2 B B | B2 B B | c2 c c |
c2 c c | d2 d d | d2 d d | d2 d d | B2 B B | B2 B B |
B2 B B | c2 c c | c2 c c | d2 "^arco" z vd/d/ | e d c A | .G z !f!Ld2 |
vB B B2 | B B B2 | B d G>A | B4 | uc c c c | c B B B/B/ | B A A B | A2 d2 |
vB B B2 | B B B2 | B d G>A | B4 | uc c c c | c B B B/B/ |
Ld2 Ld2 | Le2 Lf2 | vg4 | g4 | Lf2 La2 | Lg2 L.g z |]

